css/elements/social/LinkedIn_Colored.svg

<svg fill="none" height="437" viewBox="0 0 437 437" width="437" xmlns="http://www.w3.org/2000/svg" xmlns:xlink="http://www.w3.org/1999/xlink"><clipPath id="a"><path d="m0 .26001h436.29v436.29h-436.29z"/></clipPath><g clip-path="url(#a)"><path d="m64.3973 54.7319h334.335v298.847h-334.335z" fill="#fff"/><path d="m344.049.26001h-251.8076c-49.66 0-89.93116 40.70219-89.93116 90.89369v254.5023c0 50.191 40.27116 90.894 89.93116 90.894h251.8076c49.678 0 89.931-40.703 89.931-90.894v-254.5023c0-50.1915-40.253-90.89369-89.931-90.89369zm-197.849 345.39599h-53.9586v-199.966h53.9586zm-26.979-223.017c-17.375 0-31.4762-14.361-31.4762-32.067 0-17.7061 14.1012-32.0673 31.4762-32.0673 17.374 0 31.476 14.3612 31.476 32.0673 0 17.706-14.084 32.067-31.476 32.067zm242.814 223.017h-53.959v-101.874c0-61.226-71.945-56.59-71.945 0v101.874h-53.958v-199.966h53.958v32.085c25.109-47.01 125.904-50.482 125.904 45.011z" fill="#0e76a8"/></g></svg>

<svg width="437" height="437" viewBox="0 0 437 437" fill="none" xmlns="http://www.w3.org/2000/svg">
<g clip-path="url(#clip0)">
<rect x="64.3973" y="54.7319" width="334.335" height="298.847" fill="white"/>
<path d="M344.049 0.26001H92.2414C42.5814 0.26001 2.31024 40.9622 2.31024 91.1537V345.656C2.31024 395.847 42.5814 436.55 92.2414 436.55H344.049C393.727 436.55 433.98 395.847 433.98 345.656V91.1537C433.98 40.9622 393.727 0.26001 344.049 0.26001ZM146.2 345.656H92.2414V145.69H146.2V345.656ZM119.221 122.639C101.846 122.639 87.7448 108.278 87.7448 90.572C87.7448 72.8659 101.846 58.5047 119.221 58.5047C136.595 58.5047 150.697 72.8659 150.697 90.572C150.697 108.278 136.613 122.639 119.221 122.639ZM362.035 345.656H308.076V243.782C308.076 182.556 236.131 187.192 236.131 243.782V345.656H182.173V145.69H236.131V177.775C261.24 130.765 362.035 127.293 362.035 222.786V345.656Z" fill="#0E76A8"/>
</g>
<defs>
<clipPath id="clip0">
<rect width="436.29" height="436.29" fill="white" transform="translate(0 0.26001)"/>
</clipPath>
</defs>
</svg>
